X:WFS 13-10 14
T:Salmon Tails Up The Water
M:2/2
K:G
P:A
G2E2 D2E2 G4 G2A2 |1,3 B2d2 A2BA G2E2 D4 :|2,4 B2d2 A2BA G8 :|
P:B
B2d2 d2cB c2e2 e4 |1 d2B2 A2BA G2E2 D4 :|2 f| g2f2 e2d2 e2f2 g4 :|3 d2B2 A2BA G2E2 D2EF [P:(A2)] |]

